X:272
T:Irish Trott   
O: No 272 William Clarke of Feltwell  MS 1858
N:MS key signature G
Z:Transcribed Mary Humphreys 2008
M:6/8
L:1/8
K:C
def fgf|def fgf|ece dBG|c2 c e2c:||:dBG GAG|dBG GAG|efg dBG|c2 c c3:||

